client/img/icon/social/dribbble.svg

<?xml version="1.0" encoding="UTF-8"?>
<svg width="32px" height="32px" viewBox="0 0 32 32" version="1.1" xmlns="http://www.w3.org/2000/svg" xmlns:xlink="http://www.w3.org/1999/xlink">
    <!-- Generator: sketchtool 47 (45396) - http://www.bohemiancoding.com/sketch -->
    <title>icon/social/dribbble</title>
    <desc>Created with sketchtool.</desc>
    <defs>
        <path d="M16,7 C11.029,7 7,11.02975 7,16 C7,20.97025 11.029,25 16,25 C20.971,25 25,20.97025 25,16 C25,11.02975 20.971,7 16,7 Z M23.41375,15.58075 C21.4825,15.26425 19.7065,15.247 18.0865,15.526 C17.9035,15.10375 17.71375,14.68225 17.51125,14.266 C19.24375,13.516 20.635,12.4975 21.67225,11.2045 C22.68475,12.4 23.32,13.91875 23.41375,15.58075 Z M20.53225,10.11925 C19.6285,11.28475 18.38125,12.2065 16.79275,12.87925 C16.03075,11.4835 15.15925,10.12225 14.17675,8.80075 C14.761,8.653 15.37,8.56525 16,8.56525 C17.70625,8.56525 19.276,9.1495 20.53225,10.11925 Z M12.64525,9.3745 C13.6435,10.681 14.5285,12.028 15.298,13.41025 C13.4755,13.9465 11.29975,14.22175 8.785,14.239 C9.304,12.11275 10.73575,10.34425 12.64525,9.3745 L12.64525,9.3745 Z M8.56525,16 L8.575,15.808 C11.46175,15.80425 13.95175,15.472 16.0375,14.8165 C16.21225,15.17275 16.3795,15.5305 16.54,15.8905 C14.005,16.68325 11.91625,18.307 10.28725,20.7505 C9.21325,19.46125 8.56525,17.80525 8.56525,16 L8.56525,16 Z M11.437,21.8575 C12.91375,19.5415 14.7985,18.034 17.1355,17.33725 C17.8315,19.15225 18.34225,21.01975 18.66775,22.93225 C16.156,23.9005 13.453,23.43175 11.437,21.8575 Z M20.1265,22.18 C19.798,20.41525 19.3165,18.69025 18.6865,17.00725 C20.0935,16.8085 21.6415,16.86025 23.33575,17.15425 C23.008,19.24375 21.81475,21.04825 20.1265,22.18 Z" id="path-1"></path>
    </defs>
    <g id="Symbols" stroke="none" stroke-width="1" fill="none" fill-rule="evenodd">
        <g id="icon/social/dribbble">
            <mask id="mask-2" fill="white">
                <use xlink:href="#path-1"></use>
            </mask>
            <use id="dribbble" fill="#000000" fill-rule="nonzero" xlink:href="#path-1"></use>
            <g id="color/solid/primary" mask="url(#mask-2)" fill="#4A90E2">
                <g transform="translate(-24.000000, -24.000000)" id="color">
                    <rect x="0" y="0" width="80" height="80"></rect>
                </g>
            </g>
        </g>
    </g>
</svg>

<?xml version="1.0" encoding="utf-8"?>
<!-- Generator: Adobe Illustrator 23.0.0, SVG Export Plug-In . SVG Version: 6.00 Build 0)  -->
<svg version="1.1" id="Layer_1" xmlns="http://www.w3.org/2000/svg" xmlns:xlink="http://www.w3.org/1999/xlink" x="0px" y="0px"
	 viewBox="0 0 32 32" style="enable-background:new 0 0 32 32;" xml:space="preserve">
<path d="M16,7c-5,0-9,4-9,9c0,5,4,9,9,9s9-4,9-9C25,11,21,7,16,7z M21.7,11.2c1,1.2,1.6,2.7,1.7,4.4c-1.9-0.3-3.7-0.3-5.3-0.1
	c-0.2-0.4-0.4-0.8-0.6-1.3C19.2,13.5,20.6,12.5,21.7,11.2z M16,8.6c1.7,0,3.3,0.6,4.5,1.6c-0.9,1.2-2.2,2.1-3.7,2.8
	c-0.8-1.4-1.6-2.8-2.6-4.1C14.8,8.7,15.4,8.6,16,8.6z M12.6,9.4c1,1.3,1.9,2.7,2.7,4c-1.8,0.5-4,0.8-6.5,0.8
	C9.3,12.1,10.7,10.3,12.6,9.4z M8.6,16l0-0.2c2.9,0,5.4-0.3,7.5-1c0.2,0.4,0.3,0.7,0.5,1.1c-2.5,0.8-4.6,2.4-6.3,4.9
	C9.2,19.5,8.6,17.8,8.6,16z M11.4,21.9c1.5-2.3,3.4-3.8,5.7-4.5c0.7,1.8,1.2,3.7,1.5,5.6C16.2,23.9,13.5,23.4,11.4,21.9z M20.1,22.2
	c-0.3-1.8-0.8-3.5-1.4-5.2c1.4-0.2,3-0.1,4.6,0.1C23,19.2,21.8,21,20.1,22.2z"/>
</svg>
